X: 30777
T: Orthodox Priest, The
R: jig
M: 6/8
K: Eminor
|:E3 B2B|cBA BAG|E3 B2B|AFD DEF|
GAB AFD|CEG FED|CEG AFD|1 BcB AGF:|2 BEE E3||
|:edB BAB|dAF D2d|edB BAB|DFA d2c|
Bef gfg|c3 edc|Bef gfe|fe^d e3:|
|:B^df a2a|gfe agf|gfe fe^d|e=dB cBA|
B^df a2a|gfe aga|bag fe^d|egf e3:|
|:edB BAB|cBA B2B|edB BAB|cBA B2B|
edB BAB|cBA BAG|AGF GFE|FE^D E3:|
|:E^GB d3|cBA ABc|DFA d2c|BcB AGF|
EGA BAG|cBc edc|Bef gfe|fe^d e3:|

